X:40
T:[untitled]
Z:Jack Campin - http://www.campin.me.uk
S:Blaikie MS (NLS MS.1578) p15
N:Blaikie #39
M:6/8
L:1/8
V:1 midi program 1 74
V:2 midi program 1 46 bass middle = d transpose -24
Q:3/8=80
K:C
[V:1]   G2G E2A|G2G E2A|G>AG GFE|E3  D2
[V:2]   c3  c'3|c3  c'3|c3   c3 |G3  g2
%
[V:1] C|E2G GAB|c2d e2d|cAc  GEG|C3  z3|]
[V:2] z|c'3 g2f|e2d c2z|f3   g3 |c'3 c3|]
W:Transcription (c) Jack Campin 2009, no mirroring or republication without permission

